X: 40581
T: Tommy's Tarbukas
R: reel
M: 4/4
K: Aminor
(3Bcd|:e2 de cAAc|BGdG eGdG|e2 de cAAc|BGdB cAcd|
e2 de cAAc|BGdG eGdG|e2 ce BGGB|1 Aaed cAcd:|2 Aaed cAAG||
|:EAcA FAdc|Bdgf egge|EAcA FAdc|BgdB cAAG|
EAcA FAdc|Bdgf egge|gecf dBGF|1 EA^GB cAA=G:|2 EA^GB cAcd||

